X: 551
T: Above And Beyond
R: hornpipe
M: 4/4
K: Dmajor
D2 ED FEEA|FAAF BAFA|d2 dB AFAB|ABFA FEEF|
D2 ED FEEA|FAAF BAFA|d2 dB ADAF|1 EDDE D4:|2 EDDE DEFA||
d2 dc BA A2|F2 Ad AF F2|d2 (3cBA BAAB|FAAB FEEF|
D2 ED FEEA|FAAF BAFA|d2 dB ADAF|1 EDDE DEFA:|2 EDDE D4||

